src/1-subject/push.svg

<svg width="1300" height="1000" fill="none" xmlns="http://www.w3.org/2000/svg"><path d="M383.074 469.162c0-1.662 5.902-57.127 23.43-93.162 15.049-29.175 39.06-33.545 77.179-33.979 36.975-.426 67.042 5.516 82.944 33.197C581 411.5 597.5 486 597.5 486l27.5 63 25.423 21.186a15.784 15.784 0 0 1-17.34 26.152L598.5 578.5 550 491l14.504 227-1.5 156 15.598 6.406a20.001 20.001 0 0 1 12.402 18.501V900h-93.5l1.5-18a9.97 9.97 0 0 1-4.439-8.408L496.004 746l-9.5-125-9 125v128a10 10 0 0 1-4 8l1.5 18H383c0-7.632 4.401-14.58 11.301-17.842l16.203-7.658-2-156.5 6.5-118.5-5.869 22.986a.917.917 0 0 1-.642.657c-12.056 3.376-23.881-6.04-23.292-18.546l1.519-32.227s-3.646-59.37-3.646-103.208Z" fill="#fff"/><path d="M389.07 472.47s5.44-56.683 21.98-91.955c14.201-28.557 36.989-32.07 72.96-32.495 34.892-.416 63.264 5.4 78.27 32.495C573 409 592.36 489.77 592.36 489.77L621 554l25.391 20.958a9.3 9.3 0 0 1-10.254 15.4l-32.687-17.221-47.91-86.057-15.802-68.033a1.326 1.326 0 0 0-2.614.414L543 487.5l3 30.5 3 55.855 9.5 143.153-1.5 161.007 21.216 9.112a10.001 10.001 0 0 1 6.052 9.022l.064 3.851H503.5l2.09-22.01a5.003 5.003 0 0 1-5.033-5.05l1.198-128.82-12.532-147.284a2.86 2.86 0 0 0-5.698.01L471.49 744.135l-.242 129.575a4.317 4.317 0 0 1-4.348 4.31l1.991 21.98H389c0-5.192 2.968-9.927 7.641-12.189l20.179-9.771-2.16-161.02L422 573.5l2.5-55.5 3-30 5.395-68.664a1.228 1.228 0 0 0-2.442-.254l-6.463 50.008-9.49 104.403-10.216 43.651a.63.63 0 0 1-.613.486c-7.175 0-12.898-5.989-12.572-13.157l1.411-30.98-3.45-101.023h.01Z" fill="#000"/><path d="M473.324 340c3.926 1.471 11.257 1.995 13.176 2 0 0 8.646-.072 13.682-2 5.676-2.172 8.837-4.293 12.669-8.96 2.619-3.188 4.662-8.697 5.57-11.42.358-1.076.606-2.181.795-3.3l4.277-25.32s.516-3.649.507-6c-.02-5.591-.777-8.874-3.041-14-2.325-5.265-4.358-8.083-8.614-12-4.537-4.176-7.807-6-13.683-7.968-4.561-1.528-7.345-1.993-12.162-2.032-5.17.175-7.095.5-12.029 2.032-4.938 1.649-9.979 4.57-13.816 7.968-3.836 3.398-6.521 7.42-8.614 12-2.094 4.58-3.039 9.002-3.041 14 .001 1.885.208 4.137.507 6l5.084 24.993a24.33 24.33 0 0 0 1.005 3.605c1.072 2.894 3.346 8.603 5.566 11.402 3.047 3.841 7.466 7.241 12.162 9Z" fill="#fff"/><path d="M475.432 334.258c3.298 1.281 9.456 1.738 11.068 1.742 0 0 7.263-.063 11.493-1.742 4.767-1.892 7.423-3.739 10.642-7.804 2.15-2.714 3.839-7.36 4.625-9.782.339-1.045.572-2.118.748-3.202l3.566-21.889s.433-3.178.426-5.226c-.017-4.87-.652-7.729-2.554-12.194-1.953-4.585-3.662-7.039-7.237-10.451-3.811-3.637-6.558-5.226-11.493-6.94-3.832-1.331-6.17-1.736-10.216-1.77-4.342.152-5.959.435-10.104 1.77-4.148 1.436-8.383 3.98-11.605 6.94-3.223 2.959-5.478 6.462-7.237 10.451-1.759 3.99-2.552 7.841-2.554 12.194 0 1.641.175 3.603.426 5.226l4.234 21.584c.234 1.19.535 2.363.946 3.504.924 2.57 2.789 7.37 4.61 9.75 2.56 3.346 6.272 6.307 10.216 7.839Z" fill="#000"/></svg>

<svg width="1300" height="1000" viewBox="0 0 1300 1000" fill="none" xmlns="http://www.w3.org/2000/svg">
<path d="M383.074 469.162C383.074 467.5 388.976 412.035 406.504 376C421.553 346.825 445.564 342.455 483.683 342.021C520.658 341.595 550.725 347.537 566.627 375.218C581 411.5 597.5 486 597.5 486L625 549L650.423 570.186C656.483 575.236 657.884 583.986 653.703 590.676C649.35 597.64 640.383 600.103 633.083 596.338L598.5 578.5L550 491L564.504 718L563.004 874L578.602 880.406C586.105 883.488 591.004 890.796 591.004 898.907V900H497.504L499.004 882C496.197 880.129 494.527 876.965 494.565 873.592L496.004 746L486.504 621L477.504 746V874C477.504 877.148 476.022 880.111 473.504 882L475.004 900H383C383 892.368 387.401 885.42 394.301 882.158L410.504 874.5L408.504 718L415.004 599.5L409.135 622.486C409.054 622.804 408.809 623.055 408.493 623.143C396.437 626.519 384.612 617.103 385.201 604.597L386.72 572.37C386.72 572.37 383.074 513 383.074 469.162Z" fill="white"/>
<path d="M389.07 472.47C389.07 472.47 394.51 415.787 411.05 380.515C425.251 351.958 448.039 348.445 484.01 348.02C518.902 347.604 547.274 353.42 562.28 380.515C573 409 592.36 489.77 592.36 489.77L621 554L646.391 574.958C649.912 577.864 650.803 582.895 648.494 586.833C645.98 591.122 640.536 592.675 636.137 590.358L603.45 573.137L555.54 487.08L539.738 419.047C539.599 418.446 539.063 418.02 538.446 418.02C537.668 418.02 537.058 418.686 537.124 419.461L543 487.5L546 518L549 573.855L558.5 717.008L557 878.015L578.216 887.127C581.833 888.681 584.202 892.212 584.268 896.149L584.332 900H503.5L505.59 877.99C502.797 878.007 500.531 875.733 500.557 872.94L501.755 744.12L489.223 596.836C489.097 595.357 487.859 594.22 486.374 594.22C484.886 594.22 483.647 595.363 483.525 596.846L471.49 744.135L471.248 873.71C471.244 876.104 469.293 878.037 466.9 878.02L468.891 900H389C389 894.808 391.968 890.073 396.641 887.811L416.82 878.04L414.66 717.02L422 573.5L424.5 518L427.5 488L432.895 419.336C432.951 418.617 432.381 418.005 431.66 418.011C431.047 418.016 430.531 418.474 430.453 419.082L423.99 469.09L414.5 573.493L404.284 617.144C404.217 617.429 403.963 617.63 403.671 617.63C396.496 617.63 390.773 611.641 391.099 604.473L392.51 573.493L389.06 472.47H389.07Z" fill="black"/>
<path d="M473.324 340C477.25 341.471 484.581 341.995 486.5 342C486.5 342 495.146 341.928 500.182 340C505.858 337.828 509.019 335.707 512.851 331.04C515.47 327.852 517.513 322.343 518.421 319.62C518.779 318.544 519.027 317.439 519.216 316.32L523.493 291C523.493 291 524.009 287.351 524 285C523.98 279.409 523.223 276.126 520.959 271C518.634 265.735 516.601 262.917 512.345 259C507.808 254.824 504.538 253 498.662 251.032C494.101 249.504 491.317 249.039 486.5 249C481.33 249.175 479.405 249.5 474.471 251.032C469.533 252.681 464.492 255.602 460.655 259C456.819 262.398 454.134 266.42 452.041 271C449.947 275.58 449.002 280.002 449 285C449.001 286.885 449.208 289.137 449.507 291L454.591 315.993C454.84 317.218 455.162 318.425 455.596 319.598C456.668 322.492 458.942 328.201 461.162 331C464.209 334.841 468.628 338.241 473.324 340Z" fill="white"/>
<path d="M475.432 334.258C478.73 335.539 484.888 335.996 486.5 336C486.5 336 493.763 335.937 497.993 334.258C502.76 332.366 505.416 330.519 508.635 326.454C510.785 323.74 512.474 319.094 513.26 316.672C513.599 315.627 513.832 314.554 514.008 313.47L517.574 291.581C517.574 291.581 518.007 288.403 518 286.355C517.983 281.485 517.348 278.626 515.446 274.161C513.493 269.576 511.784 267.122 508.209 263.71C504.398 260.073 501.651 258.484 496.716 256.77C492.884 255.439 490.546 255.034 486.5 255C482.158 255.152 480.541 255.435 476.396 256.77C472.248 258.206 468.013 260.75 464.791 263.71C461.568 266.669 459.313 270.172 457.554 274.161C455.795 278.151 455.002 282.002 455 286.355C455 287.996 455.175 289.958 455.426 291.581L459.66 313.165C459.894 314.355 460.195 315.528 460.606 316.669C461.53 319.239 463.395 324.039 465.216 326.419C467.776 329.765 471.488 332.726 475.432 334.258Z" fill="black"/>
</svg>
